imgs/huawei-app-gallery.svg

<svg width="195" height="56" viewBox="0 0 195 56" fill="none" xmlns="http://www.w3.org/2000/svg">
<g clip-path="url(#clip0_513_1382)">
<path d="M11.9406 56C11.5178 56 11.0565 56 10.6337 56C9.82652 55.9617 8.86559 55.9234 7.90466 55.7703C7.02061 55.6172 6.21343 55.3493 5.48312 54.9665C4.71437 54.5837 4.06094 54.0861 3.44595 53.512C2.83095 52.9378 2.3697 52.2488 1.94689 51.4833C1.56252 50.756 1.3319 49.9522 1.17815 49.0718C0.985963 48.1148 0.947525 47.1196 0.947525 46.3541C0.947525 46.0479 0.909088 45.0526 0.909088 45.0526V10.9474C0.909088 10.9474 0.909088 9.95216 0.947525 9.64594C0.947525 8.88039 1.0244 7.88517 1.17815 6.92824C1.37033 6.04785 1.60096 5.2823 1.98533 4.55503C2.3697 3.78948 2.86939 3.10049 3.44595 2.52632C4.06094 1.91388 4.75281 1.41628 5.52155 1.0335C6.25186 0.650725 7.05904 0.382783 7.90466 0.229673C8.86559 0.0382852 9.86496 7.62939e-06 10.6337 7.62939e-06H11.9406H183.371H184.677C185.408 7.62939e-06 186.407 0.0765627 187.368 0.229673C188.252 0.382783 189.021 0.650725 189.79 1.0335C190.52 1.41628 191.212 1.91388 191.827 2.48805C192.403 3.06221 192.903 3.7512 193.326 4.51675C193.71 5.24403 193.941 6.04785 194.095 6.88996C194.248 7.80862 194.325 8.72728 194.364 9.60766C194.364 10.0287 194.364 10.4498 194.364 10.9091C194.364 11.445 194.364 11.9809 194.364 12.4785V43.4833C194.364 44.0191 194.364 44.5168 194.364 45.0526C194.364 45.512 194.364 45.9713 194.364 46.3923C194.325 47.2345 194.287 48.1914 194.133 49.0718C193.979 49.9522 193.71 50.756 193.364 51.4833C192.98 52.2488 192.48 52.8995 191.904 53.4737C191.289 54.0861 190.635 54.5837 189.866 54.9665C189.098 55.3493 188.329 55.6172 187.445 55.7703C186.522 55.9234 185.562 56 184.716 56C184.293 56 183.832 56 183.409 56H181.833H11.9406Z" fill="#242427"/>
<path d="M71.843 38.1715H65.024L63.3478 42.7429H60.3382L67.0049 25.7143H69.824L76.643 42.7429H73.4811L71.843 38.1715ZM65.9001 35.8857H71.0049L69.1763 31.0096C68.9097 30.3238 68.6811 29.6 68.4525 28.7619C68.224 29.4857 67.9954 30.2096 67.7287 30.9715L65.9001 35.8857Z" fill="white"/>
<path d="M77.9008 33.1807C77.9008 32.2284 77.8627 31.1998 77.8246 30.095H80.5674C80.6817 30.6284 80.7579 31.1617 80.796 31.695C81.9389 30.476 83.2341 29.8665 84.6817 29.8665C85.5198 29.8665 86.3198 30.095 87.0436 30.5141C87.7674 30.9331 88.3389 31.6188 88.796 32.5331C89.2531 33.4474 89.4436 34.6284 89.4436 36.0379C89.4436 37.5236 89.1769 38.7807 88.6817 39.8474C88.1865 40.9141 87.4627 41.676 86.5484 42.2474C85.6341 42.7807 84.6055 43.0474 83.3865 43.0474C82.5103 43.0474 81.6722 42.895 80.8341 42.6284V47.8855L77.9389 48.1522V33.1807H77.9008ZM85.5579 39.6569C86.1674 38.8569 86.4341 37.7141 86.4341 36.1522C86.4341 34.7426 86.2055 33.7141 85.7103 33.0665C85.2151 32.4188 84.5674 32.1141 83.7674 32.1141C83.196 32.1141 82.6627 32.2284 82.2055 32.495C81.7103 32.7617 81.2912 33.1045 80.8341 33.5617V40.3807C81.1389 40.5331 81.4436 40.6474 81.8627 40.7236C82.2436 40.7998 82.6246 40.8379 83.0055 40.8379C84.1103 40.8379 84.9484 40.4569 85.5579 39.6569Z" fill="white"/>
<path d="M91.1573 33.181C91.1573 32.2286 91.1192 31.2 91.0811 30.0953H93.824C93.9382 30.6286 94.0144 31.1619 94.0525 31.6953C95.1954 30.4762 96.4906 29.8667 97.9382 29.8667C98.7763 29.8667 99.5763 30.0953 100.3 30.5143C101.024 30.9334 101.595 31.6191 102.053 32.5334C102.51 33.4477 102.7 34.6286 102.7 36.0381C102.7 37.5238 102.433 38.781 101.938 39.8477C101.443 40.9143 100.719 41.6762 99.8049 42.2477C98.8906 42.781 97.8621 43.0477 96.643 43.0477C95.7668 43.0477 94.9287 42.8953 94.0906 42.6286V47.8858L91.1954 48.1524V33.181H91.1573ZM98.8144 39.6572C99.424 38.8572 99.6906 37.7143 99.6906 36.1524C99.6906 34.7429 99.4621 33.7143 98.9668 33.0667C98.4716 32.4191 97.824 32.1143 97.024 32.1143C96.4525 32.1143 95.9192 32.2286 95.4621 32.4953C94.9668 32.7619 94.5478 33.1048 94.0906 33.5619V40.381C94.3954 40.5334 94.7002 40.6477 95.1192 40.7239C95.5002 40.8 95.8811 40.8381 96.2621 40.8381C97.3668 40.8381 98.2049 40.4572 98.8144 39.6572Z" fill="white"/>
<path d="M107.996 41.9428C106.739 41.2571 105.786 40.2666 105.101 38.9714C104.415 37.6761 104.072 36.1523 104.072 34.4C104.072 32.4952 104.453 30.8571 105.253 29.5238C106.015 28.1904 107.082 27.2 108.415 26.5142C109.748 25.8285 111.234 25.5238 112.91 25.5238C113.901 25.5238 114.815 25.6381 115.729 25.8285C116.605 26.0571 117.444 26.3238 118.205 26.7047L117.482 28.9523C115.92 28.1904 114.434 27.8095 113.063 27.8095C111.882 27.8095 110.853 28.0761 109.939 28.5714C109.063 29.0666 108.339 29.8285 107.844 30.7809C107.348 31.7714 107.12 32.9523 107.12 34.3238C107.12 35.5428 107.31 36.6095 107.691 37.5619C108.072 38.5142 108.682 39.2381 109.482 39.8095C110.282 40.3428 111.348 40.6476 112.567 40.6476C113.139 40.6476 113.71 40.6095 114.244 40.4952C114.815 40.419 115.348 40.2666 115.844 40.0761V36.6476H111.92V34.4H118.663V41.5619C117.672 42.019 116.682 42.3619 115.615 42.5904C114.548 42.819 113.482 42.9714 112.415 42.9714C110.739 42.9714 109.253 42.6285 107.996 41.9428Z" fill="white"/>
<path d="M129.024 42.7429C128.91 42.2477 128.872 41.6762 128.833 41.0667C128.376 41.6 127.805 42.0572 127.081 42.4381C126.357 42.8191 125.557 43.0096 124.643 43.0096C123.919 43.0096 123.233 42.8572 122.662 42.5905C122.053 42.2857 121.595 41.8667 121.214 41.2953C120.872 40.7238 120.681 40 120.681 39.2C120.681 37.981 121.138 36.9905 122.014 36.2667C122.891 35.5429 124.376 35.1619 126.433 35.1619C127.195 35.1619 127.995 35.2 128.757 35.3143V35.0477C128.757 33.9429 128.529 33.1429 128.033 32.6857C127.538 32.2286 126.853 32 125.976 32C125.367 32 124.681 32.0762 123.995 32.2667C123.272 32.4572 122.662 32.6477 122.129 32.9143L121.672 30.781C122.205 30.5524 122.853 30.3238 123.729 30.1334C124.567 29.9429 125.481 29.8286 126.395 29.8286C127.5 29.8286 128.414 29.981 129.176 30.3238C129.938 30.6667 130.548 31.2381 130.967 32.0381C131.386 32.8381 131.614 33.9429 131.614 35.3143V40.3429C131.614 40.8762 131.653 41.6762 131.691 42.7429H129.024ZM127.272 40.381C127.881 40.0762 128.376 39.7334 128.757 39.3143V36.9524C127.957 36.8762 127.31 36.8381 126.814 36.8381C125.633 36.8381 124.795 37.0286 124.338 37.4096C123.881 37.7905 123.653 38.3238 123.653 38.9715C123.653 39.581 123.805 40.0762 124.148 40.381C124.491 40.6857 124.948 40.8381 125.519 40.8381C126.091 40.8381 126.662 40.6857 127.272 40.381Z" fill="white"/>
<path d="M133.862 39.6953V24.7238L136.757 24.4953V39.2C136.757 39.7334 136.833 40.1143 137.024 40.3429C137.214 40.5715 137.481 40.6857 137.9 40.6857C138.091 40.6857 138.319 40.6476 138.662 40.5715L139.005 42.6667C138.738 42.781 138.395 42.8572 138.014 42.9334C137.633 43.0096 137.253 43.0476 136.91 43.0476C134.891 42.9715 133.862 41.9048 133.862 39.6953Z" fill="white"/>
<path d="M141.1 39.6953V24.7238L143.996 24.4953V39.2C143.996 39.7334 144.072 40.1143 144.262 40.3429C144.453 40.5715 144.72 40.6857 145.139 40.6857C145.329 40.6857 145.558 40.6476 145.9 40.5715L146.243 42.6667C145.977 42.781 145.634 42.8572 145.253 42.9334C144.872 43.0096 144.491 43.0476 144.148 43.0476C142.129 42.9715 141.1 41.9048 141.1 39.6953Z" fill="white"/>
<path d="M158.167 36.7619H149.862C149.976 39.4286 151.272 40.7619 153.672 40.7619C154.281 40.7619 154.891 40.6858 155.5 40.5334C156.11 40.381 156.719 40.1905 157.291 39.9619L157.938 41.9429C156.529 42.6286 154.929 42.9715 153.138 42.9715C151.805 42.9715 150.662 42.7048 149.71 42.2096C148.795 41.7143 148.072 40.9524 147.614 40C147.157 39.0477 146.929 37.9048 146.929 36.5334C146.929 35.1238 147.157 33.9048 147.653 32.9143C148.148 31.8858 148.833 31.1238 149.71 30.5905C150.586 30.0572 151.614 29.7905 152.757 29.7905C153.938 29.7905 154.967 30.0572 155.767 30.6286C156.567 31.2 157.176 31.9238 157.557 32.8762C157.938 33.8286 158.129 34.8572 158.129 35.9619V36.7619H158.167ZM155.31 34.9334C155.272 33.9048 155.005 33.181 154.548 32.6477C154.091 32.1524 153.481 31.8858 152.719 31.8858C151.995 31.8858 151.386 32.1524 150.891 32.6477C150.395 33.1429 150.091 33.9048 149.938 34.9334H155.31Z" fill="white"/>
<path d="M160.338 33.2572C160.338 32.5715 160.3 31.5048 160.262 30.0572H162.967C163.005 30.4 163.043 30.8191 163.119 31.3143C163.157 31.8096 163.195 32.1905 163.195 32.4953C163.538 31.9238 163.881 31.4667 164.186 31.0857C164.529 30.7048 164.91 30.4 165.329 30.1715C165.748 29.9429 166.243 29.8286 166.814 29.8286C167.272 29.8286 167.653 29.8667 167.957 29.981L167.576 32.4953C167.31 32.4191 166.967 32.381 166.624 32.381C165.938 32.381 165.329 32.5715 164.833 32.9143C164.338 33.2572 163.767 33.8286 163.195 34.6286V42.781H160.3V33.2572H160.338Z" fill="white"/>
<path d="M169.596 47.9241C169.177 47.8479 168.834 47.7717 168.567 47.6574L169.101 45.5241C169.291 45.5622 169.558 45.6384 169.824 45.6765C170.129 45.7146 170.396 45.7527 170.663 45.7527C171.958 45.7527 172.91 44.9146 173.558 43.2765L173.748 42.8193L169.063 30.0193H172.186L174.548 37.1812C174.929 38.4003 175.196 39.3527 175.272 40.0003C175.501 39.086 175.767 38.1717 176.034 37.2574L178.434 30.0574H181.367L176.682 42.8955C176.224 44.1146 175.767 45.105 175.272 45.8289C174.777 46.5908 174.167 47.1241 173.482 47.505C172.796 47.8479 171.958 48.0384 170.967 48.0384C170.472 48.0384 170.015 48.0003 169.596 47.9241Z" fill="white"/>
<path d="M60.3382 9.48586H65.5192L65.3668 10.743H61.8621V13.1811H65.1763V14.362H61.8621V17.0287H65.5573L65.443 18.2859H60.3382V9.48586Z" fill="white"/>
<path d="M69.1002 13.7905L66.3573 9.48575H68.0716L69.9382 12.6477L71.8811 9.48575H73.5573L70.8525 13.7524L73.7859 18.2857H72.0335L69.9382 14.8191L67.8049 18.2857H66.1287L69.1002 13.7905Z" fill="white"/>
<path d="M74.8901 9.4858H77.252C78.3568 9.4858 79.233 9.71437 79.8044 10.1715C80.4139 10.6287 80.6806 11.2763 80.6806 12.1525C80.6806 12.7239 80.5663 13.2572 80.2996 13.6763C80.0329 14.0953 79.652 14.4382 79.1949 14.6668C78.7377 14.8953 78.1663 15.0096 77.5568 15.0096C77.2139 15.0096 76.8329 14.9715 76.4139 14.8953V18.2858H74.8901V9.4858ZM78.6996 13.4096C79.0044 13.1048 79.1949 12.6858 79.1949 12.1525C79.1949 11.6191 79.0425 11.2382 78.6996 10.9715C78.3568 10.7429 77.8996 10.6287 77.252 10.6287H76.4139V13.7525C76.7949 13.8287 77.0996 13.8287 77.2901 13.8287C77.8996 13.8668 78.3949 13.7144 78.6996 13.4096Z" fill="white"/>
<path d="M82.2045 9.4858H83.7284V16.9906H87.3474L87.2331 18.2858H82.2045V9.4858Z" fill="white"/>
<path d="M89.6716 17.8667C89.0239 17.4857 88.5287 16.9905 88.1859 16.3048C87.843 15.6572 87.6906 14.8572 87.6906 13.981C87.6906 13.0667 87.8811 12.2286 88.2239 11.5429C88.6049 10.8572 89.1001 10.3238 89.7859 9.94289C90.4716 9.56194 91.2716 9.37146 92.1859 9.37146C93.062 9.37146 93.8239 9.56194 94.4716 9.90479C95.1192 10.2857 95.6144 10.781 95.9192 11.4667C96.262 12.1143 96.4144 12.9143 96.4144 13.7905C96.4144 14.7429 96.2239 15.5429 95.8811 16.2667C95.5001 16.9524 95.0049 17.4857 94.3192 17.8667C93.6335 18.2477 92.8335 18.4381 91.9192 18.4381C91.0811 18.4 90.3192 18.2096 89.6716 17.8667ZM93.5954 16.7619C94.0144 16.4953 94.3192 16.0762 94.5478 15.581C94.7763 15.0857 94.8525 14.5143 94.8525 13.8667C94.8525 13.2191 94.7763 12.6857 94.5858 12.1905C94.3954 11.6953 94.0906 11.3143 93.7097 11.0096C93.2906 10.7048 92.7573 10.5524 92.1478 10.5524C91.5382 10.5524 91.0049 10.7048 90.5858 11.0096C90.1668 11.3143 89.8239 11.6953 89.6335 12.1905C89.4049 12.6857 89.3287 13.2572 89.3287 13.8286C89.3287 14.4762 89.443 15.0476 89.6335 15.5429C89.8239 16.0381 90.1287 16.4572 90.5478 16.7238C90.9668 17.0286 91.462 17.1429 92.1097 17.1429C92.643 17.2191 93.1763 17.0667 93.5954 16.7619Z" fill="white"/>
<path d="M98.1668 9.48575H100.91C101.9 9.48575 102.662 9.67622 103.195 10.0953C103.729 10.5143 103.957 11.0857 103.957 11.8096C103.957 12.2667 103.881 12.6857 103.691 13.0286C103.5 13.3715 103.272 13.6762 103.005 13.9048C102.738 14.1334 102.433 14.2857 102.167 14.4L104.872 18.2857H103.119L100.833 14.8191H99.7287V18.2857H98.2049V9.48575H98.1668ZM100.529 13.6381C100.91 13.6381 101.214 13.5619 101.519 13.4096C101.786 13.2572 102.014 13.0667 102.167 12.8C102.319 12.5334 102.395 12.2286 102.395 11.8857C102.395 11.4286 102.243 11.1238 101.976 10.9334C101.71 10.7429 101.291 10.6286 100.757 10.6286H99.6525V13.6381H100.529Z" fill="white"/>
<path d="M106.052 9.4858H111.233L111.081 10.7429H107.576V13.181H110.89V14.362H107.576V17.0287H111.271L111.157 18.2858H106.052V9.4858Z" fill="white"/>
<path d="M116.833 9.4858H118.357V18.2858H116.833V9.4858Z" fill="white"/>
<path d="M122.357 10.7429H119.614L119.767 9.48575H126.624L126.472 10.7429H123.881V18.2857H122.357V10.7429Z" fill="white"/>
<path d="M133.214 17.8667C132.566 17.4857 132.071 16.9905 131.728 16.3048C131.386 15.6572 131.233 14.8572 131.233 13.981C131.233 13.0667 131.424 12.2286 131.766 11.5429C132.109 10.8572 132.643 10.3238 133.328 9.94289C134.014 9.56194 134.814 9.37146 135.728 9.37146C136.605 9.37146 137.366 9.56194 138.014 9.90479C138.662 10.2857 139.157 10.781 139.462 11.4667C139.805 12.1143 139.957 12.9143 139.957 13.7905C139.957 14.7429 139.766 15.5429 139.424 16.2667C139.043 16.9524 138.547 17.4857 137.862 17.8667C137.176 18.2477 136.376 18.4381 135.462 18.4381C134.624 18.4 133.862 18.2096 133.214 17.8667ZM137.138 16.7619C137.557 16.4953 137.862 16.0762 138.09 15.581C138.319 15.0857 138.395 14.5143 138.395 13.8667C138.395 13.2191 138.319 12.6857 138.128 12.1905C137.938 11.6953 137.633 11.3143 137.252 11.0096C136.833 10.7048 136.3 10.5524 135.69 10.5524C135.081 10.5524 134.547 10.7048 134.128 11.0096C133.709 11.3143 133.366 11.6953 133.176 12.1905C132.947 12.6857 132.871 13.2572 132.871 13.8286C132.871 14.4762 132.986 15.0476 133.176 15.5429C133.366 16.0381 133.671 16.4572 134.09 16.7238C134.509 17.0286 135.043 17.1429 135.652 17.1429C136.186 17.2191 136.719 17.0667 137.138 16.7619Z" fill="white"/>
<path d="M141.71 9.48575H143.462L147.805 16.3048C147.767 15.6572 147.767 15.0477 147.767 14.5143V9.48575H149.176V18.2857H147.5L143.081 11.3524C143.119 12.1524 143.157 12.8381 143.157 13.4477V18.2857H141.748V9.48575H141.71Z" fill="white"/>
<path fill-rule="evenodd" clip-rule="evenodd" d="M39.0047 9.52371H22.8904C15.2714 9.52371 12.4904 12.3047 12.4904 19.9237V36.0761C12.4904 43.6951 15.2714 46.4761 22.8904 46.4761H39.0047C46.6237 46.4761 49.4047 43.6951 49.4047 36.0761V19.9237C49.4047 12.3047 46.6237 9.52371 39.0047 9.52371Z" fill="#C8102E"/>
<path d="M19.8047 27.9999H20.7952V32.838H19.8047V30.857H17.5952V32.7999H16.6047V27.9999H17.5952V29.9428H19.8047V27.9999ZM25.3285 30.7428C25.3285 31.5428 24.9475 31.9618 24.2237 31.9618C23.4999 31.9618 23.119 31.5428 23.119 30.7428V27.9999H22.1285V30.7428C22.1285 32.1142 22.8904 32.8761 24.1856 32.8761C25.519 32.8761 26.2809 32.0761 26.2809 30.7047V27.9999H25.2904V30.7428H25.3285ZM36.6428 31.3142L35.538 27.9999H34.738L33.6333 31.3142L32.5666 27.9999H31.538L33.2142 32.838H34.0142L35.119 29.6761L36.2237 32.838H37.0237L38.6999 27.9999H37.6714L36.6428 31.3142ZM40.4523 30.7428H42.2428V29.8666H40.4523V28.8761H43.0428V27.9999H39.4999V32.7999H43.1571V31.9237H40.4904V30.7428H40.4523ZM44.2999 32.7999H45.2523V27.9999H44.2999V32.7999ZM28.2237 31.8094L27.7666 32.7999H26.7761L28.9095 27.9618H29.7856L31.919 32.7999H30.8904L30.4714 31.8094H28.2237ZM28.6047 30.9332H30.0904L29.3666 29.2189L28.6047 30.9332Z" fill="white"/>
<path d="M30.9285 21.8666C27.538 21.8666 24.7952 19.1237 24.7952 15.7332H25.6714C25.6714 18.6285 28.0333 20.9904 30.9285 20.9904C33.8237 20.9904 36.1856 18.6285 36.1856 15.7332H37.0999C37.0999 19.0856 34.319 21.8666 30.9285 21.8666Z" fill="white"/>
</g>
<defs>
<clipPath id="clip0_513_1382">
<rect width="193.455" height="56" fill="white" transform="translate(0.909088)"/>
</clipPath>
</defs>
</svg>

<svg xmlns="http://www.w3.org/2000/svg" width="195" height="56" fill="none" xmlns:v="https://vecta.io/nano"><g clip-path="url(#A)"><path d="M11.941 56h-1.307l-2.729-.23a8.19 8.19 0 0 1-2.422-.804c-.769-.383-1.422-.88-2.037-1.455s-1.076-1.263-1.499-2.029c-.384-.727-.615-1.531-.769-2.411-.192-.957-.231-1.952-.231-2.718l-.038-1.302V10.947l.038-1.301c0-.766.077-1.761.231-2.718.192-.88.423-1.646.807-2.373.384-.766.884-1.455 1.461-2.029a7.94 7.94 0 0 1 2.076-1.493C6.252.651 7.059.383 7.905.23 8.866.038 9.865 0 10.634 0h1.307 171.43 1.306c.731 0 1.73.077 2.691.23.884.153 1.653.421 2.422.804.73.383 1.422.88 2.037 1.455.576.574 1.076 1.263 1.499 2.029.384.727.615 1.531.769 2.373.153.919.23 1.837.269 2.718v1.301 1.569 31.005 1.569 1.34l-.231 2.68c-.154.88-.423 1.684-.769 2.411-.384.766-.884 1.416-1.46 1.99-.615.612-1.269 1.11-2.038 1.493s-1.537.651-2.421.804a17.13 17.13 0 0 1-2.729.23h-1.307-1.576H11.941z" fill="#242427"/><g fill="#fff"><path d="M71.843 38.172h-6.819l-1.676 4.571h-3.01l6.667-17.029h2.819l6.819 17.029h-3.162l-1.638-4.571zM65.9 35.886h5.105l-1.829-4.876c-.267-.686-.495-1.41-.724-2.248l-.724 2.21-1.829 4.914zm12.001-2.705l-.076-3.086h2.743a11.56 11.56 0 0 1 .229 1.6c1.143-1.219 2.438-1.829 3.886-1.829.838 0 1.638.229 2.362.648s1.295 1.105 1.752 2.019.648 2.095.648 3.505c0 1.486-.267 2.743-.762 3.81s-1.219 1.829-2.133 2.4c-.914.533-1.943.8-3.162.8-.876 0-1.714-.152-2.552-.419v5.257l-2.895.267V33.181h-.038zm7.657 6.476c.609-.8.876-1.943.876-3.505 0-1.41-.229-2.438-.724-3.086a2.31 2.31 0 0 0-1.943-.952c-.571 0-1.105.114-1.562.381-.495.267-.914.61-1.371 1.067v6.819a3.62 3.62 0 0 0 1.029.343 5.83 5.83 0 0 0 1.143.114c1.105 0 1.943-.381 2.552-1.181zm5.599-6.476l-.076-3.086h2.743a11.57 11.57 0 0 1 .228 1.6c1.143-1.219 2.438-1.829 3.886-1.829.838 0 1.638.229 2.362.648s1.295 1.105 1.753 2.019.647 2.095.647 3.505c0 1.486-.267 2.743-.762 3.81a5.47 5.47 0 0 1-2.133 2.4c-.914.533-1.943.8-3.162.8a8.33 8.33 0 0 1-2.552-.419v5.257l-2.895.267V33.181h-.038zm7.657 6.476c.61-.8.876-1.943.876-3.505 0-1.41-.228-2.438-.724-3.086a2.31 2.31 0 0 0-1.943-.952c-.572 0-1.105.114-1.562.381-.495.267-.914.609-1.372 1.067v6.819c.305.152.61.267 1.029.343a5.82 5.82 0 0 0 1.143.114c1.105 0 1.943-.381 2.552-1.181zm9.182 2.286c-1.257-.686-2.21-1.676-2.895-2.971s-1.029-2.819-1.029-4.571c0-1.905.381-3.543 1.181-4.876.762-1.333 1.829-2.324 3.162-3.01s2.819-.99 4.495-.99c.991 0 1.905.114 2.819.305.876.229 1.715.495 2.476.876l-.723 2.248c-1.562-.762-3.048-1.143-4.419-1.143-1.181 0-2.21.267-3.124.762-.876.495-1.6 1.257-2.095 2.209-.496.991-.724 2.171-.724 3.543 0 1.219.19 2.286.571 3.238s.991 1.676 1.791 2.248c.8.533 1.866.838 3.085.838.572 0 1.143-.038 1.677-.152a7.06 7.06 0 0 0 1.6-.419V36.65h-3.924V34.4h6.743v7.162a14.4 14.4 0 0 1-3.048 1.029c-1.067.229-2.133.381-3.2.381-1.676 0-3.162-.343-4.419-1.029zm21.028.8c-.114-.495-.152-1.067-.191-1.676-.457.533-1.028.991-1.752 1.371s-1.524.572-2.438.572a4.72 4.72 0 0 1-1.981-.419c-.609-.305-1.067-.724-1.448-1.295-.342-.572-.533-1.295-.533-2.095 0-1.219.457-2.21 1.333-2.933s2.362-1.105 4.419-1.105c.762 0 1.562.038 2.324.152v-.267c0-1.105-.228-1.905-.724-2.362s-1.18-.686-2.057-.686c-.609 0-1.295.076-1.981.267-.723.191-1.333.381-1.866.648l-.457-2.133a11.01 11.01 0 0 1 2.057-.648c.838-.191 1.752-.305 2.666-.305 1.105 0 2.019.152 2.781.495s1.372.914 1.791 1.714.647 1.905.647 3.276v5.029l.077 2.4h-2.667zm-1.752-2.362c.609-.305 1.104-.648 1.485-1.067v-2.362l-1.943-.114c-1.181 0-2.019.191-2.476.572s-.685.914-.685 1.562c0 .61.152 1.105.495 1.41s.8.457 1.371.457 1.143-.152 1.753-.457zm6.59-.686V24.724l2.895-.229V39.2c0 .533.076.914.267 1.143s.457.343.876.343c.191 0 .419-.038.762-.114l.343 2.095c-.267.114-.61.191-.991.267a5.72 5.72 0 0 1-1.104.114c-2.019-.076-3.048-1.143-3.048-3.352zm7.238 0V24.724l2.896-.229V39.2c0 .533.076.914.266 1.143s.458.343.877.343c.19 0 .419-.038.761-.114l.343 2.095c-.266.114-.609.191-.99.267a5.73 5.73 0 0 1-1.105.114c-2.019-.076-3.048-1.143-3.048-3.352zm17.067-2.933h-8.305c.114 2.667 1.41 4 3.81 4a7.51 7.51 0 0 0 1.828-.228c.61-.152 1.219-.343 1.791-.572l.647 1.981c-1.409.686-3.009 1.029-4.8 1.029-1.333 0-2.476-.267-3.428-.762-.915-.495-1.638-1.257-2.096-2.21s-.685-2.095-.685-3.467c0-1.41.228-2.629.724-3.619.495-1.028 1.18-1.79 2.057-2.324s1.904-.8 3.047-.8c1.181 0 2.21.267 3.01.838a4.97 4.97 0 0 1 1.79 2.248c.381.953.572 1.981.572 3.086v.8h.038zm-2.857-1.828c-.038-1.029-.305-1.752-.762-2.286-.457-.495-1.067-.762-1.829-.762a2.5 2.5 0 0 0-1.828.762c-.496.495-.8 1.257-.953 2.286h5.372zm5.028-1.677l-.076-3.2h2.705l.152 1.257.076 1.181a12.55 12.55 0 0 1 .991-1.41 4.32 4.32 0 0 1 1.143-.914c.419-.229.914-.343 1.485-.343.458 0 .839.038 1.143.152l-.381 2.514c-.266-.076-.609-.114-.952-.114-.686 0-1.295.191-1.791.533s-1.066.914-1.638 1.714v8.152H160.3v-9.524h.038zm9.258 14.667c-.419-.076-.762-.152-1.029-.267l.534-2.133.723.152.839.076c1.295 0 2.247-.838 2.895-2.476l.19-.457-4.685-12.8h3.123l2.362 7.162c.381 1.219.648 2.172.724 2.819l.762-2.743 2.4-7.2h2.933l-4.685 12.838c-.458 1.219-.915 2.209-1.41 2.933a4.98 4.98 0 0 1-1.79 1.676c-.686.343-1.524.533-2.515.533-.495 0-.952-.038-1.371-.114z"/><use href="#B"/><path d="M69.1 13.791l-2.743-4.305h1.714l1.867 3.162 1.943-3.162h1.676l-2.705 4.267 2.933 4.533h-1.752l-2.095-3.467-2.133 3.467h-1.676l2.972-4.495zm5.79-4.305h2.362c1.105 0 1.981.229 2.552.686.609.457.876 1.105.876 1.981 0 .571-.114 1.105-.381 1.524a2.78 2.78 0 0 1-1.105.991c-.457.229-1.029.343-1.638.343-.343 0-.724-.038-1.143-.114v3.39H74.89v-8.8zm3.81 3.924a1.72 1.72 0 0 0 .495-1.257c0-.533-.152-.914-.495-1.181-.343-.229-.8-.343-1.448-.343h-.838v3.124c.381.076.686.076.876.076.61.038 1.105-.114 1.41-.419zm3.505-3.924h1.524v7.505h3.619l-.114 1.295h-5.029v-8.8zm7.467 8.381c-.648-.381-1.143-.876-1.486-1.562-.343-.648-.495-1.448-.495-2.324 0-.914.191-1.752.533-2.438.381-.686.876-1.219 1.562-1.6s1.486-.571 2.4-.571c.876 0 1.638.19 2.286.533.648.381 1.143.876 1.448 1.562.343.648.495 1.448.495 2.324 0 .952-.191 1.752-.533 2.476-.381.686-.876 1.219-1.562 1.6s-1.486.571-2.4.571c-.838-.038-1.6-.229-2.248-.571zm3.924-1.105c.419-.267.724-.686.952-1.181s.305-1.067.305-1.714-.076-1.181-.267-1.676a2.76 2.76 0 0 0-.876-1.181c-.419-.305-.952-.457-1.562-.457s-1.143.152-1.562.457-.762.686-.952 1.181c-.229.495-.305 1.067-.305 1.638a4.73 4.73 0 0 0 .305 1.714c.191.495.495.914.914 1.181.419.305.914.419 1.562.419.533.076 1.067-.076 1.486-.381zm4.571-7.276h2.743c.99 0 1.752.19 2.285.61s.762.99.762 1.714c0 .457-.076.876-.266 1.219s-.419.648-.686.876-.572.381-.838.495l2.705 3.886h-1.753l-2.286-3.467h-1.104v3.467h-1.524v-8.8h-.038zm2.362 4.152a2.1 2.1 0 0 0 .99-.229c.267-.152.495-.343.648-.61s.228-.571.228-.914c0-.457-.152-.762-.419-.952s-.685-.305-1.219-.305h-1.105v3.009h.876zm5.523-4.152h5.181l-.152 1.257h-3.505v2.438h3.314v1.181h-3.314v2.667h3.695l-.114 1.257h-5.105v-8.8zm10.781 0h1.524v8.8h-1.524v-8.8zm5.524 1.257h-2.743l.153-1.257h6.857l-.152 1.257h-2.591v7.543h-1.524v-7.543zm10.857 7.124c-.648-.381-1.143-.876-1.486-1.562-.342-.648-.495-1.448-.495-2.324 0-.914.191-1.752.533-2.438s.877-1.219 1.562-1.6 1.486-.571 2.4-.571c.877 0 1.638.19 2.286.533.648.381 1.143.876 1.448 1.562.343.648.495 1.448.495 2.324 0 .952-.191 1.752-.533 2.476-.381.686-.877 1.219-1.562 1.6s-1.486.571-2.4.571c-.838-.038-1.6-.229-2.248-.571zm3.924-1.105c.419-.267.724-.686.952-1.181s.305-1.067.305-1.714-.076-1.181-.267-1.676a2.75 2.75 0 0 0-.876-1.181c-.419-.305-.952-.457-1.562-.457s-1.143.152-1.562.457-.762.686-.952 1.181c-.229.495-.305 1.067-.305 1.638 0 .648.115 1.219.305 1.714s.495.914.914 1.181c.419.305.953.419 1.562.419.534.076 1.067-.076 1.486-.381zm4.572-7.276h1.752l4.343 6.819-.038-1.79V9.486h1.409v8.8H147.5l-4.419-6.933.076 2.095v4.838h-1.409v-8.8h-.038z"/></g><path fill-rule="evenodd" d="M39.005 9.524H22.89c-7.619 0-10.4 2.781-10.4 10.4v16.152c0 7.619 2.781 10.4 10.4 10.4h16.114c7.619 0 10.4-2.781 10.4-10.4V19.924c0-7.619-2.781-10.4-10.4-10.4z" fill="#c8102e"/><g fill="#fff"><path d="M19.805 28h.991v4.838h-.991v-1.981h-2.21V32.8h-.99V28h.99v1.943h2.21V28zm5.524 2.743c0 .8-.381 1.219-1.105 1.219s-1.105-.419-1.105-1.219V28h-.991v2.743c0 1.371.762 2.133 2.057 2.133 1.333 0 2.095-.8 2.095-2.171V28h-.99v2.743h.038zm11.314.571L35.538 28h-.8l-1.105 3.314L32.567 28h-1.029l1.676 4.838h.8l1.105-3.162 1.105 3.162h.8L38.7 28h-1.029l-1.029 3.314zm3.81-.571h1.791v-.876h-1.791v-.99h2.59V28H39.5v4.8h3.657v-.876H40.49v-1.181h-.038zM44.3 32.8h.952V28H44.3v4.8zm-16.076-.991l-.457.991h-.991l2.133-4.838h.876l2.133 4.838H30.89l-.419-.991h-2.248zm.381-.876h1.486l-.724-1.714-.762 1.714zm2.324-9.066a6.13 6.13 0 0 1-6.133-6.133h.876a5.27 5.27 0 0 0 5.257 5.257 5.27 5.27 0 0 0 5.257-5.257h.914c0 3.352-2.781 6.133-6.171 6.133z"/></g></g><defs><clipPath id="A"><path fill="#fff" transform="translate(.909)" d="M0 0h193.455v56H0z"/></clipPath><path id="B" d="M60.338 9.486h5.181l-.152 1.257h-3.505v2.438h3.314v1.181h-3.314v2.667h3.695l-.114 1.257h-5.105v-8.8z"/></defs></svg>
